src/assets/duotone/CardTick1.svg

<?xml version="1.0" encoding="UTF-8"?>
<svg width="24" height="24" viewBox="0 0 24 24" xmlns="http://www.w3.org/2000/svg">
 <path d="m22 7.77v1.23h-20v-1.46c0-2.29 1.86-4.14 4.15-4.14h9.85v2.57c0 1.27 0.76 2.03 2.03 2.03h2.94c0.4 0 0.74-0.07 1.03-0.23z" opacity=".4"/>
 <path d="m2 9v7.46c0 2.29 1.86 4.14 4.15 4.14h11.7c2.29 0 4.15-1.85 4.15-4.14v-7.46h-20zm6 8.25h-2c-0.41 0-0.75-0.34-0.75-0.75s0.34-0.75 0.75-0.75h2c0.41 0 0.75 0.34 0.75 0.75s-0.34 0.75-0.75 0.75zm6.5 0h-4c-0.41 0-0.75-0.34-0.75-0.75s0.34-0.75 0.75-0.75h4c0.41 0 0.75 0.34 0.75 0.75s-0.34 0.75-0.75 0.75z"/>
 <path d="m20.97 1h-2.94c-1.27 0-2.03 0.76-2.03 2.03v2.94c0 1.27 0.76 2.03 2.03 2.03h2.94c1.27 0 2.03-0.76 2.03-2.03v-2.94c0-1.27-0.76-2.03-2.03-2.03zm0.66 2.45-2.37 2.77c-0.09 0.11-0.23 0.18-0.37 0.18h-0.02c-0.14 0-0.27-0.05-0.37-0.15l-1.1-1.08c-0.2-0.2-0.2-0.53 0-0.73s0.53-0.21 0.73 0l0.7 0.69 2-2.34c0.19-0.22 0.51-0.24 0.73-0.06 0.23 0.18 0.25 0.51 0.07 0.72z"/>
</svg>

<svg width="24" height="24" viewBox="0 0 24 24"  xmlns="http://www.w3.org/2000/svg">
<path opacity="0.4" d="M22 7.77002V9.00002H2V7.54002C2 5.25002 3.86 3.40002 6.15 3.40002H16V5.97002C16 7.24002 16.76 8.00002 18.03 8.00002H20.97C21.37 8.00002 21.71 7.93002 22 7.77002Z" />
<path d="M2 9V16.46C2 18.75 3.86 20.6 6.15 20.6H17.85C20.14 20.6 22 18.75 22 16.46V9H2ZM8 17.25H6C5.59 17.25 5.25 16.91 5.25 16.5C5.25 16.09 5.59 15.75 6 15.75H8C8.41 15.75 8.75 16.09 8.75 16.5C8.75 16.91 8.41 17.25 8 17.25ZM14.5 17.25H10.5C10.09 17.25 9.75 16.91 9.75 16.5C9.75 16.09 10.09 15.75 10.5 15.75H14.5C14.91 15.75 15.25 16.09 15.25 16.5C15.25 16.91 14.91 17.25 14.5 17.25Z" />
<path d="M20.97 1H18.03C16.76 1 16 1.76 16 3.03V5.97C16 7.24 16.76 8 18.03 8H20.97C22.24 8 23 7.24 23 5.97V3.03C23 1.76 22.24 1 20.97 1ZM21.63 3.45L19.26 6.22C19.17 6.33 19.03 6.4 18.89 6.4C18.88 6.4 18.88 6.4 18.87 6.4C18.73 6.4 18.6 6.35 18.5 6.25L17.4 5.17C17.2 4.97 17.2 4.64 17.4 4.44C17.6 4.24 17.93 4.23 18.13 4.44L18.83 5.13L20.83 2.79C21.02 2.57 21.34 2.55 21.56 2.73C21.79 2.91 21.81 3.24 21.63 3.45Z" />
</svg>
